lib/healthicons/icons/solid/diagnostics/malaria_pv_microscope.svg

<svg fill="none" height="48" viewBox="0 0 48 48" width="48" xmlns="http://www.w3.org/2000/svg"><path clip-rule="evenodd" d="m44.0522 24c0 11.0457-8.9543 20-20 20-11.0456 0-19.99995-8.9543-19.99995-20s8.95435-20 19.99995-20c11.0457 0 20 8.9543 20 20zm-26.6085-3.5389c-3.0717 2.3738-6.5185 3.0602-7.69869 1.5331-1.18014-1.5271.35329-4.6895 3.42499-7.0632 3.0717-2.3738 6.5186-3.0602 7.6987-1.5331s-.3533 4.6894-3.425 7.0632zm18.1601 13.6261c.9866-1.634-.8779-4.5672-4.1645-6.5517-3.2866-1.9844-6.7507-2.2686-7.7373-.6346-.9866 1.6339.878 4.5672 4.1646 6.5516 3.2866 1.9845 6.7507 2.2686 7.7372.6347zm-3.146-18.3985c1.6458 3.5183 1.562 7.0338-.1871 7.852-1.7492.8182-4.5013-1.3706-6.1472-4.889-1.6458-3.5183-1.562-7.0338.1871-7.852 1.7492-.8182 4.5013 1.3707 6.1472 4.889zm-11.8022 22.9619c1.7644-.8869 1.7485-4.4831-.0356-8.0322-1.7841-3.549-4.6608-5.7071-6.4252-4.8201-1.7645.887-1.7485 4.4831.0356 8.0322 1.7841 3.549 4.6608 5.7071 6.4252 4.8201zm-7.6556-18.1506c0 .5523-.4477 1-1 1s-1-.4477-1-1 .4477-1 1-1 1 .4477 1 1zm-.5-1.5c.2761 0 .5-.2239.5-.5s-.2239-.5-.5-.5-.5.2239-.5.5.2239.5.5.5zm2.0678.5c0 .2761-.2238.5-.5.5-.2761 0-.5-.2239-.5-.5s.2239-.5.5-.5c.2762 0 .5.2239.5.5zm18.4322 13.5c.5523 0 1-.4477 1-1s-.4477-1-1-1-1 .4477-1 1 .4477 1 1 1zm-2.0938-.5469c0 .2503-.2029.4531-.4531.4531-.2503 0-.4531-.2028-.4531-.4531 0-.2502.2028-.4531.4531-.4531.2502 0 .4531.2029.4531.4531zm-1.9062-12.4531c.5523 0 1-.4477 1-1s-.4477-1-1-1-1 .4477-1 1 .4477 1 1 1zm3.4.7c0 .3866-.3134.7-.7.7s-.7-.3134-.7-.7.3134-.7.7-.7.7.3134.7.7zm-14.4 15.3c.5523 0 1-.4477 1-1s-.4477-1-1-1-1 .4477-1 1 .4477 1 1 1zm1.9062-3.5469c0 .2503-.2028.4531-.4531.4531-.2502 0-.4531-.2028-.4531-.4531 0-.2502.2029-.4531.4531-.4531.2503 0 .4531.2029.4531.4531zm-.2062 4.9469c.3866 0 .7-.3134.7-.7s-.3134-.7-.7-.7-.7.3134-.7.7.3134.7.7.7z" fill="#333" fill-rule="evenodd"/></svg>

<svg width="48" height="48" viewBox="0 0 48 48" fill="none" xmlns="http://www.w3.org/2000/svg">
<path fill-rule="evenodd" clip-rule="evenodd" d="M44 24C44 35.0457 35.0457 44 24 44C12.9543 44 4 35.0457 4 24C4 12.9543 12.9543 4 24 4C35.0457 4 44 12.9543 44 24ZM17.3914 20.4611C14.3197 22.8349 10.8729 23.5213 9.69277 21.9942C8.51263 20.4671 10.0461 17.3047 13.1178 14.931C16.1895 12.5572 19.6363 11.8708 20.8165 13.3979C21.9966 14.925 20.4632 18.0873 17.3914 20.4611ZM35.5516 34.0872C36.5382 32.4532 34.6736 29.52 31.387 27.5355C28.1004 25.5511 24.6363 25.2669 23.6498 26.9009C22.6632 28.5348 24.5277 31.4681 27.8143 33.4525C31.1009 35.437 34.565 35.7211 35.5516 34.0872ZM32.4055 15.6887C34.0513 19.207 33.9676 22.7225 32.2184 23.5407C30.4693 24.3589 27.7171 22.1701 26.0713 18.6517C24.4255 15.1334 24.5092 11.6179 26.2584 10.7997C28.0075 9.9815 30.7597 12.1704 32.4055 15.6887ZM20.6033 38.6506C22.3678 37.7637 22.3518 34.1675 20.5677 30.6184C18.7836 27.0694 15.907 24.9113 14.1425 25.7983C12.3781 26.6853 12.394 30.2814 14.1781 33.8305C15.9622 37.3795 18.8389 39.5376 20.6033 38.6506ZM12.9478 20.5C12.9478 21.0523 12.5 21.5 11.9478 21.5C11.3955 21.5 10.9478 21.0523 10.9478 20.5C10.9478 19.9477 11.3955 19.5 11.9478 19.5C12.5 19.5 12.9478 19.9477 12.9478 20.5ZM12.4478 19C12.7239 19 12.9478 18.7761 12.9478 18.5C12.9478 18.2239 12.7239 18 12.4478 18C12.1716 18 11.9478 18.2239 11.9478 18.5C11.9478 18.7761 12.1716 19 12.4478 19ZM14.5156 19.5C14.5156 19.7761 14.2917 20 14.0156 20C13.7394 20 13.5156 19.7761 13.5156 19.5C13.5156 19.2239 13.7394 19 14.0156 19C14.2917 19 14.5156 19.2239 14.5156 19.5ZM32.9477 33C33.5 33 33.9477 32.5523 33.9477 32C33.9477 31.4477 33.5 31 32.9477 31C32.3954 31 31.9477 31.4477 31.9477 32C31.9477 32.5523 32.3954 33 32.9477 33ZM30.8539 32.4531C30.8539 32.7034 30.6511 32.9062 30.4008 32.9062C30.1506 32.9062 29.9477 32.7034 29.9477 32.4531C29.9477 32.2029 30.1506 32 30.4008 32C30.6511 32 30.8539 32.2029 30.8539 32.4531ZM28.9478 20C29.5001 20 29.9478 19.5523 29.9478 19C29.9478 18.4477 29.5001 18 28.9478 18C28.3955 18 27.9478 18.4477 27.9478 19C27.9478 19.5523 28.3955 20 28.9478 20ZM32.3478 20.7C32.3478 21.0866 32.0344 21.4 31.6478 21.4C31.2612 21.4 30.9478 21.0866 30.9478 20.7C30.9478 20.3134 31.2612 20 31.6478 20C32.0344 20 32.3478 20.3134 32.3478 20.7ZM17.9478 36C18.5001 36 18.9478 35.5523 18.9478 35C18.9478 34.4477 18.5001 34 17.9478 34C17.3955 34 16.9478 34.4477 16.9478 35C16.9478 35.5523 17.3955 36 17.9478 36ZM19.854 32.4531C19.854 32.7034 19.6511 32.9062 19.4009 32.9062C19.1506 32.9062 18.9478 32.7034 18.9478 32.4531C18.9478 32.2029 19.1506 32 19.4009 32C19.6511 32 19.854 32.2029 19.854 32.4531ZM19.6478 37.4C20.0344 37.4 20.3478 37.0866 20.3478 36.7C20.3478 36.3134 20.0344 36 19.6478 36C19.2612 36 18.9478 36.3134 18.9478 36.7C18.9478 37.0866 19.2612 37.4 19.6478 37.4Z" fill="#333333"/>
</svg>
